X:2827
T:Paddy Carey
C:anon.
O:Ireland
F:http://abc.musicaviva.com/tunes/ireland/paddy-carey.abc
%Posted at abcusers Jan 2nd 2001 by Johnny Adams.
M:6/8
L:1/8
K:G
D2 G GFG | B2 G GFG | E2 A A2B | c2 A F2 E | D2 G GFG | B2 G GFG |
FED DEF | GAB A2 G ::G2 B c2 e | d2 e dcB | G2 B c2 e | dcB A3 |
G2 B c2 e |  d2 e dcB | GFG BAG | FEF G3 ::c2A AGA | B2 G GFG |
F2 G A2 B | c2 E FED | c2 A AGA | B2 G GFG | FED D EF | GAB A2 G :|
W:
W:
W:  From Musica Viva - http://www.musicaviva.com
W:  the Internet center for free sheet music downloads.
